X:1
T:Title
%%score 1 { 2 | 3 }
L:1/8
Q:1/4=105
M:4/4
K:C
V:1 treble nm="Grand Piano, Soprano"
V:2 treble nm="Choir Pad, Nothing Is Too Hard for Jesus"
V:3 bass 
V:1
 [EG][FA][EG][DF] [CE]2 [FA]2 | [EG]4 [Ec]2 [Ec][GB] | [FA]2 [Ac]2 [GB]2 [FA]2 | [EG]6 z2 | %4
w: By~Fred~S.~Shepard * * * * *||||
 [EG][FA][EG][DF] [CE]2 [FA]2 | [EG]4 [Ec]2 [Ec][Ec] | [FB]2 [FA]2 [FG]2 [Fd]2 | [Ec]6 [Ec][GB] | %8
w: ||||
 [FA]2 [FA]2 [Fc]2 [FA]2 | [EG]4 [CE]2 [DF][CE] | [B,D]6 [FA][EG] | [CE]6 [EG][EG] | %12
w: ||||
 [FA]2 [FA]2 [Fc]2 [FA]2 | [EG]4 [Ec]2 [Ec][Ec] | [FB]2 [FA]2 [FG]2 [Fd]2 | [Ec]8 |] %16
w: ||||
V:2
 CCCG, G,2 C2 | C4 G,2 CC | C2 C2 C2 C2 | C6 z2 | CCCG, G,2 C2 | C4[K:bass] G,2 G,G, | %6
 G,2 G,2 G,2 G,2 | G,6 z2 | CCCC A,2 C2 | CCCC[K:bass] G,2 z2 | z2 G,G, G,2 z2 | z2 G,G, G,2 z2 | %12
 CCCC A,2 C2 | CCCC[K:bass] G,2 G,G, | G,2 G,2 G,2 B,2 | C8 |] %16
V:3
 C,C,C,C, C,2 C,2 | C,4 C,2 C,E, | F,2 F,2 F,2 F,2 | C,6 z2 | C,C,C,C, C,2 C,2 | C,4 C,2 C,C, | %6
 G,,2 G,,2 G,,2 G,,2 | C,6 z2 | F,F,F,F, F,2 F,2 | C,C,C,C, C,2 z2 | z8 | z2 C,C, C,2 z2 | %12
 F,F,F,F, F,2 F,2 | C,C,C,C, C,2 C,C, | G,,2 G,,2 G,,2 G,,2 | [C,G,]8 |] %16

